assets/images/icons/champagne.svg

<svg viewBox="0 0 50 50" xmlns="http://www.w3.org/2000/svg"><path d="m42.46875 2.007813c-1.21875 0-2.4375.460937-3.359375 1.382812l-1.816406 1.816406c-.351563.351563-.390625.910157-.089844 1.308594l-2.125 2.125c-4.332031 4.332031-7.945312 5.644531-11.574219 6.855469-3.625 1.210937-7.328125 2.316406-11.132812 6.125l-9.175781 9.171875c-1.585938 1.585937-1.585938 4.1875 0 5.777344l5.117187 5.117187 5.117188 5.113281c1.589843 1.589844 4.191406 1.589844 5.777343 0l9.171875-9.171875c3.808594-3.804687 4.914063-7.507812 6.121094-11.132812 1.210938-3.628906 2.523438-7.242188 6.859375-11.574219l2.125-2.125c.398438.300781.957031.261719 1.308594-.089844l1.816406-1.816406c1.847656-1.847656 1.847656-4.871094 0-6.71875l-.78125-.78125c-.925781-.921875-2.140625-1.386719-3.359375-1.382812zm0 1.984375c.703125.003906 1.40625.273437 1.949219.8125l.777344.78125c1.082031 1.082031 1.082031 2.808593 0 3.890625l-1.101563 1.101562-2.335937-2.335937c-.027344-.027344-.058594-.054688-.089844-.078125l-2.25-2.25 1.101562-1.109375c.542969-.539063 1.246094-.8125 1.949219-.8125zm-17.46875.007812c-.550781 0-1 .449219-1 1s.449219 1 1 1 1-.449219 1-1-.449219-1-1-1zm6 3c-.550781 0-1 .449219-1 1s.449219 1 1 1 1-.449219 1-1-.449219-1-1-1zm7.609375.9375 3.453125 3.453125-2.121094 2.117188c-1.5 1.503906-2.648437 2.945312-3.59375 4.347656l-4.203125-4.203125c1.402344-.945313 2.84375-2.09375 4.347657-3.59375zm-8.207031 6.796875 4.863281 4.863281c-.855469 1.515625-1.480469 2.972657-1.996094 4.371094l-5.425781-1.8125-1.8125-5.425781c1.398438-.515625 2.855469-1.140625 4.371094-1.996094zm-6.257813 2.65625 1.960938 5.875c.097656.296875.332031.53125.628906.628906l5.875 1.960938c-.003906 0-.003906.003906-.003906.003906-1.222656 3.671875-2.144531 6.863281-5.636719 10.359375l-9.171875 9.171875c-.824219.820313-2.128906.820313-2.953125 0l-10.234375-10.234375c-.820312-.824219-.820312-2.128906 0-2.953125l9.171875-9.171875c3.496094-3.492187 6.6875-4.414062 10.359375-5.636719 0 0 .003906 0 .003906-.003906zm19.855469.609375c-.550781 0-1 .449219-1 1s.449219 1 1 1 1-.449219 1-1-.449219-1-1-1zm3 4c-.550781 0-1 .449219-1 1s.449219 1 1 1 1-.449219 1-1-.449219-1-1-1zm-5 2c-.550781 0-1 .449219-1 1s.449219 1 1 1 1-.449219 1-1-.449219-1-1-1zm-19 1c-1.105469 0-2 .894531-2 2s.894531 2 2 2 2-.894531 2-2-.894531-2-2-2zm-7.695312.566406c-.261719.003907-.507813.109375-.695313.292969l-6.296875 6.300781c-.390625.390625-.390625 1.027344 0 1.417969l8.109375 8.109375c.390625.386719 1.027344.386719 1.417969 0l6.296875-6.300781c.390625-.390625.390625-1.023438 0-1.414063l-8.109375-8.113281c-.191406-.1875-.453125-.292969-.722656-.292969zm.011718 2.417969 6.699219 6.695313-4.886719 4.882812-6.695312-6.691406z" fill="#d59567"/></svg>

<?xml version="1.0" encoding="UTF-8"?>


<svg xmlns="http://www.w3.org/2000/svg" viewBox="0 0 50 50" version="1.1">
<g id="surface1" fill="#D59567">
<path style="" d="M 42.46875 2.007813 C 41.25 2.007813 40.03125 2.46875 39.109375 3.390625 L 37.292969 5.207031 C 36.941406 5.558594 36.902344 6.117188 37.203125 6.515625 L 35.078125 8.640625 C 30.746094 12.972656 27.132813 14.285156 23.503906 15.496094 C 19.878906 16.707031 16.175781 17.8125 12.371094 21.621094 L 3.195313 30.792969 C 1.609375 32.378906 1.609375 34.980469 3.195313 36.570313 L 8.3125 41.6875 L 13.429688 46.800781 C 15.019531 48.390625 17.621094 48.390625 19.207031 46.800781 L 28.378906 37.628906 C 32.1875 33.824219 33.292969 30.121094 34.5 26.496094 C 35.710938 22.867188 37.023438 19.253906 41.359375 14.921875 L 43.484375 12.796875 C 43.882813 13.097656 44.441406 13.058594 44.792969 12.707031 L 46.609375 10.890625 C 48.457031 9.042969 48.457031 6.019531 46.609375 4.171875 L 45.828125 3.390625 C 44.902344 2.46875 43.6875 2.003906 42.46875 2.007813 Z M 42.46875 3.992188 C 43.171875 3.996094 43.875 4.265625 44.417969 4.804688 L 45.195313 5.585938 C 46.277344 6.667969 46.277344 8.394531 45.195313 9.476563 L 44.09375 10.578125 L 41.757813 8.242188 C 41.730469 8.214844 41.699219 8.1875 41.667969 8.164063 L 39.417969 5.914063 L 40.519531 4.804688 C 41.0625 4.265625 41.765625 3.992188 42.46875 3.992188 Z M 25 4 C 24.449219 4 24 4.449219 24 5 C 24 5.550781 24.449219 6 25 6 C 25.550781 6 26 5.550781 26 5 C 26 4.449219 25.550781 4 25 4 Z M 31 7 C 30.449219 7 30 7.449219 30 8 C 30 8.550781 30.449219 9 31 9 C 31.550781 9 32 8.550781 32 8 C 32 7.449219 31.550781 7 31 7 Z M 38.609375 7.9375 L 42.0625 11.390625 L 39.941406 13.507813 C 38.441406 15.011719 37.292969 16.453125 36.347656 17.855469 L 32.144531 13.652344 C 33.546875 12.707031 34.988281 11.558594 36.492188 10.058594 Z M 30.402344 14.734375 L 35.265625 19.597656 C 34.410156 21.113281 33.785156 22.570313 33.269531 23.96875 L 27.84375 22.15625 L 26.03125 16.730469 C 27.429688 16.214844 28.886719 15.589844 30.402344 14.734375 Z M 24.144531 17.390625 L 26.105469 23.265625 C 26.203125 23.5625 26.4375 23.796875 26.734375 23.894531 L 32.609375 25.855469 C 32.605469 25.855469 32.605469 25.859375 32.605469 25.859375 C 31.382813 29.53125 30.460938 32.722656 26.96875 36.21875 L 17.796875 45.390625 C 16.972656 46.210938 15.667969 46.210938 14.84375 45.390625 L 4.609375 35.15625 C 3.789063 34.332031 3.789063 33.027344 4.609375 32.203125 L 13.78125 23.03125 C 17.277344 19.539063 20.46875 18.617188 24.140625 17.394531 C 24.140625 17.394531 24.144531 17.394531 24.144531 17.390625 Z M 44 18 C 43.449219 18 43 18.449219 43 19 C 43 19.550781 43.449219 20 44 20 C 44.550781 20 45 19.550781 45 19 C 45 18.449219 44.550781 18 44 18 Z M 47 22 C 46.449219 22 46 22.449219 46 23 C 46 23.550781 46.449219 24 47 24 C 47.550781 24 48 23.550781 48 23 C 48 22.449219 47.550781 22 47 22 Z M 42 24 C 41.449219 24 41 24.449219 41 25 C 41 25.550781 41.449219 26 42 26 C 42.550781 26 43 25.550781 43 25 C 43 24.449219 42.550781 24 42 24 Z M 23 25 C 21.894531 25 21 25.894531 21 27 C 21 28.105469 21.894531 29 23 29 C 24.105469 29 25 28.105469 25 27 C 25 25.894531 24.105469 25 23 25 Z M 15.304688 25.566406 C 15.042969 25.570313 14.796875 25.675781 14.609375 25.859375 L 8.3125 32.160156 C 7.921875 32.550781 7.921875 33.1875 8.3125 33.578125 L 16.421875 41.6875 C 16.8125 42.074219 17.449219 42.074219 17.839844 41.6875 L 24.136719 35.386719 C 24.527344 34.996094 24.527344 34.363281 24.136719 33.972656 L 16.027344 25.859375 C 15.835938 25.671875 15.574219 25.566406 15.304688 25.566406 Z M 15.316406 27.984375 L 22.015625 34.679688 L 17.128906 39.5625 L 10.433594 32.871094 Z "/>
</g>
</svg>
